X:1
T:Title
%%score { ( 1 3 4 ) | ( 2 5 ) }
L:1/8
M:3/4
K:Bb
V:1 treble nm="Grand Piano"
V:3 treble 
V:4 treble 
V:2 bass 
V:5 bass 
V:1
 z2 z2[Q:1/4=100] D>E | [DF]3 [DF] [EG]>[DF] | [DB]4 [EA]>[FB] | [Gc]3 [GB] [GB]>[EG] | %4
 [DF]4 [B,D]>[CE] | [DF]3 [DF] [EG]>[DF] | [DB]4 A>B | d6[K:bass] |[M:4/4][K:treble] c6 D>E | %9
[M:3/4] [DF]3 [DF] [EG]>[DF] | [DB]4 [EA]>[FB] | [Gc]3 [GB] [GB]>[EG] | [DF]4 [DF]>[DF] | %13
 [DB]3 [DF] [FB]>c | d4 [Ge]>[^Fe] | d4 z2 | [B,DB]6 |[M:1/4] [DB]>[DB] |[M:3/4] c3 c B>c | %19
 [Fd] [DB]3 [DF]>[DF] | [EG]3 [GB] [FA]>[EG] | [EG] [DF]3 [DF]>[DF] | [DB]3 [DF] [FB]>c | %23
 d d3 [Ge]>[^Fe] | d4 z2 |[M:2/4] [DB]4 |] %26
V:2
 z2 z2 [B,,F,B,]>[F,C] | [B,,B,]3 [B,,B,] [B,,B,]>[B,,B,] | [B,,F,]4 [C,F,]>[D,B,] | %3
 [E,B,]3 [E,B,] [E,B,]>[E,B,] | [B,,B,]4 [B,,F,]>[B,,F,] | [B,,B,]3 [B,,B,] [B,,B,]>[B,,B,] | %6
 [B,,F,]4 [F,C]>[F,B,D] | [F,F]2 z2 z2 |[M:4/4] [F,A,E]6 [F,B,]>[F,A,C] | %9
[M:3/4] [B,,B,]3 [B,,B,] [B,,B,]>[B,,B,] | [B,,F,]4 [C,F,]>[D,B,] | [E,B,]3 [E,B,] [E,B,]>[E,B,] | %12
 [B,,B,]4 [B,,B,]>[B,,B,] | [B,,F,]3 [B,,B,] [D,B,]>[K:treble][F,A,F] | %14
 [B,F]4[K:bass] [E,B,]>[E,B,] | [B,F]2 z2 z2 | B,,6 |[M:1/4] [B,,F,]>[B,,B,] | %18
[M:3/4] [F,A,E]3 [F,A,E] [F,B,D]>[F,A,F] | [B,,B,] [B,,F,]3 [B,,B,]>[B,,B,] | %20
 [E,B,]3 [E,B,] [E,B,]>[E,B,] | [B,,B,] [B,,B,]3 [B,,B,]>[B,,B,] | %22
 [B,,F,]3 [B,,B,] [D,B,]>[K:treble][F,A,F] | [B,F] [B,F_A]3[K:bass] [E,B,]>[E,B,] | [B,F]2 z2 z2 | %25
[M:2/4] [B,,F,B,]4 |] %26
V:3
 x6 | x6 | x6 | x6 | x6 | x6 | x6 | z2 =E4[K:bass] |[M:4/4][K:treble] x8 |[M:3/4] x6 | x6 | x6 | %12
 x6 | x6 | x6 | z2 =E2 [_Ec]2 | x6 |[M:1/4] x2 |[M:3/4] x6 | x6 | x6 | x6 | x6 | x6 | z2 =E2 c2 | %25
[M:2/4] x4 |] %26
V:4
 x6 | x6 | x6 | x6 | x6 | x6 | x6 | z2 z2[K:bass] C,2 |[M:4/4][K:treble] x8 |[M:3/4] x6 | x6 | x6 | %12
 x6 | x6 | x6 | x6 | x6 |[M:1/4] x2 |[M:3/4] x6 | x6 | x6 | x6 | x6 | x6 | x6 |[M:2/4] x4 |] %26
V:5
 x6 | x6 | x6 | x6 | x6 | x6 | x6 | B,2- [G,B,-]2 B,2 |[M:4/4] x8 |[M:3/4] x6 | x6 | x6 | x6 | %13
 x11/2[K:treble] x/ | x4[K:bass] x2 | F,2- [F,-G,]2 [F,A,]2 | x6 |[M:1/4] x2 |[M:3/4] x6 | x6 | %20
 x6 | x6 | x11/2[K:treble] x/ | x4[K:bass] x2 | F,2- [F,-G,]2 [F,A,E]2 |[M:2/4] x4 |] %26

